X: 8
T: The Tenpenny Bit
R: jig
M: 6/8
L: 1/8
K: Ador
|:e|eAA eAA|BAB GBd|eAA eAA|def gfg|
eAA eAA|BAB GBd|edB gdB|BAG A2:|
|:e |eaa aga|bge gdB|eaa aga|bge g2e|
eaa aga|bge gdB|def gdB|BAG A2:|


Tune 109	Setting 109

